X: 1
T: Papal Hearse, The
M: 6/8
L: 1/8
R: jig
K: Edor
Bdg ~A3|GED G2A|Bdg ABA|GED ~E3|
GAB ABA|GED G2F|EGB AGA|Bee e3:|
g3 ~g3|edB e3|gaf g2e|dBd e3|
~g3 age|dBd efg|fed Bdg|Bdg e3:|
